icons/desktop/16/svg/show-password-16.svg

<svg width="16" height="16" viewBox="0 0 16 16" fill="none" xmlns="http://www.w3.org/2000/svg">
<path fill-rule="evenodd" clip-rule="evenodd" d="M8.00018 5.25C9.51897 5.25 10.7502 6.48122 10.7502 8C10.7502 9.51878 9.51897 10.75 8.00018 10.75C6.4814 10.75 5.25018 9.51878 5.25018 8C5.25018 6.48122 6.4814 5.25 8.00018 5.25ZM8.00018 6.75C7.30983 6.75 6.75018 7.30964 6.75018 8C6.75018 8.69036 7.30983 9.25 8.00018 9.25C8.69054 9.25 9.25018 8.69036 9.25018 8C9.25018 7.30964 8.69054 6.75 8.00018 6.75Z" fill="black"/>
<path fill-rule="evenodd" clip-rule="evenodd" d="M8.00018 2C11.3503 2 14.2303 3.92589 15.6877 6.7207C16.1046 7.5207 16.1046 8.4793 15.6877 9.2793C14.2312 12.0744 11.3502 14 8.00018 14C4.65003 14 1.77004 12.0741 0.312684 9.2793C-0.104228 8.4793 -0.104228 7.5207 0.312684 6.7207C1.76912 3.92556 4.65017 2 8.00018 2ZM8.00018 3.5C5.24642 3.5 2.85939 5.08053 1.64374 7.41309L1.64276 7.41406C1.45236 7.77955 1.45236 8.22045 1.64276 8.58594C2.8594 10.9191 5.24634 12.5 8.00018 12.5C10.754 12.5 13.141 10.9195 14.3566 8.58691L14.3576 8.58594C14.548 8.22045 14.548 7.77955 14.3576 7.41406C13.141 5.08088 10.754 3.5 8.00018 3.5Z" fill="black"/>
</svg>

<!-- This Source Code Form is subject to the terms of the Mozilla Public
   - License, v. 2.0. If a copy of the MPL was not distributed with this
   - file, You can obtain one at http://mozilla.org/MPL/2.0/. -->
<svg xmlns="http://www.w3.org/2000/svg" width="16" height="16" fill="context-fill" fill-opacity="context-fill-opacity" viewBox="0 0 16 16">
    <path fill-rule="evenodd" d="M8 5.25a2.75 2.75 0 1 1 0 5.5 2.75 2.75 0 0 1 0-5.5m0 1.5a1.25 1.25 0 1 0 0 2.5 1.25 1.25 0 0 0 0-2.5" clip-rule="evenodd" />
    <path fill-rule="evenodd" d="M8 2c3.35 0 6.23 1.926 7.688 4.72.417.8.417 1.76 0 2.56C14.23 12.073 11.35 14 8 14S1.77 12.074.313 9.28a2.77 2.77 0 0 1 0-2.56C1.769 3.927 4.65 2 8 2m0 1.5c-2.754 0-5.14 1.58-6.356 3.913l-.001.001c-.19.366-.19.806 0 1.172C2.859 10.919 5.246 12.5 8 12.5s5.141-1.58 6.357-3.913v-.001c.191-.366.191-.806 0-1.172C13.142 5.081 10.755 3.5 8 3.5" clip-rule="evenodd" />
</svg>
